icons/mail.svg

<svg width="24" height="24" viewBox="0 0 24 24" fill="none" xmlns="http://www.w3.org/2000/svg">
<path d="M2.5 20.4541C1.121 20.4541 0 19.3321 0 17.9541V5.9541C0 5.3061 0.248 4.6921 0.699 4.2241C0.7 4.2221 0.701 4.2211 0.702 4.2201C0.712 4.2081 0.725 4.1951 0.738 4.1841C1.219 3.7091 1.84 3.4541 2.5 3.4541H21.5C22.168 3.4541 22.795 3.7151 23.269 4.1891C23.278 4.1971 23.286 4.2051 23.293 4.2131C23.296 4.2161 23.299 4.2201 23.302 4.2241C23.749 4.6851 24 5.3021 24 5.9541V17.9541C24 19.3321 22.878 20.4541 21.5 20.4541H2.5ZM1.176 5.2531C1.06 5.4681 1 5.7061 1 5.9541V17.9541C1 18.7811 1.673 19.4541 2.5 19.4541H21.5C22.327 19.4541 23 18.7811 23 17.9541V5.9541C23 5.7061 22.94 5.4681 22.824 5.2531L12.316 13.8421C12.227 13.9151 12.115 13.9551 12 13.9551C11.885 13.9551 11.773 13.9151 11.684 13.8421L1.176 5.2531ZM12 12.8081L22.078 4.5711C21.896 4.4941 21.7 4.4541 21.5 4.4541H2.5C2.3 4.4541 2.104 4.4941 1.922 4.5711L12 12.8081Z" fill="#009ACE"/>
</svg>

<?xml version="1.0" encoding="utf-8"?>
<!-- Generator: Adobe Illustrator 22.1.0, SVG Export Plug-In . SVG Version: 6.00 Build 0)  -->
<svg version="1.1" id="Layer_1" xmlns="http://www.w3.org/2000/svg" xmlns:xlink="http://www.w3.org/1999/xlink" x="0px" y="0px"
	 viewBox="0 0 24 24" style="enable-background:new 0 0 24 24;" xml:space="preserve">
<g>
	<title>email-action-unread</title>
	<path d="M2.5,20.454c-1.379,0-2.5-1.122-2.5-2.5v-12c0-0.648,0.248-1.262,0.699-1.73C0.7,4.222,0.701,4.221,0.702,4.22
		c0.01-0.012,0.023-0.025,0.036-0.036C1.219,3.709,1.84,3.454,2.5,3.454h19c0.668,0,1.295,0.261,1.769,0.735
		c0.009,0.008,0.017,0.016,0.024,0.024c0.003,0.003,0.006,0.007,0.009,0.011C23.749,4.685,24,5.302,24,5.954v12
		c0,1.378-1.122,2.5-2.5,2.5H2.5z M1.176,5.253C1.06,5.468,1,5.706,1,5.954v12c0,0.827,0.673,1.5,1.5,1.5h19
		c0.827,0,1.5-0.673,1.5-1.5v-12c0-0.248-0.06-0.486-0.176-0.701l-10.508,8.589c-0.089,0.073-0.201,0.113-0.316,0.113
		s-0.227-0.04-0.316-0.113L1.176,5.253z M12,12.808l10.078-8.237C21.896,4.494,21.7,4.454,21.5,4.454h-19
		c-0.2,0-0.396,0.04-0.578,0.117L12,12.808z"/>
</g>
</svg>
